X: 1
T: Inch of Perth
T: 8x32S 3C (RSCDS Bk 11)
P: Brig of Perth
C: Daniel Dow 1773
C: arr. John Chambers, mods. T. Traub 8-28-2011
M: 4/4
L: 1/16
K: Amix=g
e|"A"ABcd e3A "D"d3A f3A |"A"c3A e3c a3e ce3 |"A"ABcd e3d c3e A3=c |"G"Bd3 G3B g3d B4 :|
e | "A"A3a e3a c3a ea3 | Aa3 e3f e3A c4 | A3a e3a c3a Aa3 | "G"g3b e3g B3G B4 ||
"A"A3a e3a c3a ea3 | Aa3 e3f e3A c4 | A3a g3a e3a c3a | "G"Bg3 d3g B3G B4 |]

